X:1
T:Dutchess of Bedford's Strathspey
C:William Marshall
R:Strathspey
Z:arr. Terry Traub 11/16/97
M:4/4
K:Bb
L: 1/8
"Bb"B,c "Gm"B2 FB|"Cm"c<c c>d "F7"e2 Fe|"Bb"dfgf "Eb"edcB|\
  "C"A>Bc>d "F"c/B/A/G/ FE|"Bb"Dc "Gm"B2 FB|"Cm"c<cc>d "F7"e2 Fe|
"Bb"dfgf "Eb"edcB|"Bb"F>B "F"A/B/c/A/ "Bb"B2 B|| e| "Bb"d/e/f/g/ ff b2 fa|\
L: 1/16
"Bb"bagf gfed "Eb"edcB "F"c3d| "Cm"cdef g3f "Eb"e2d2c2B2|
L: 1/8
"C"ABc>d "F"c/B/A/G/ F>E|"Bb"DBFB "F"FcAc|"Bb"FdBd "Eb"Egeg|\
L: 1/16
"Bb"dfga b3f "Eb"gfed "Bb"edcB |"F"F3B ABcA "Bb"B4 B2 |]
